X:1
T:Almsgiving (Dykes), 88.84
T:John Bacchus Dykes, 1865
T:Almsgiving (Dykes), 88.84
T:Public Domain
C:John Bacchus Dykes, 1865
Z:Public Domain
%%score ( 1 2 ) ( 3 4 )
L:1/8
M:3/4
K:G
V:1 treble 
V:2 treble 
V:3 bass 
V:4 bass 
V:1
 [DB]2 [DB]2 (DC) | (B,3 C D2) | (D2 C2) [CA]2 | [B,B]6 | D2 [DG]2 [GB]2 | (G2 FE) [Fc]2 | %6
 (B2 A2) [^CG]2 | [FA]6 | [A,F]2 [B,G]2 [CA]2 | [B,G]4 [CG]2 | ([DB]2 [Gc]2) [=Fd]2 | [Ee]6 | %12
 (B,D) [GB]3 [FA] x | G6 |] %14
V:2
 x4 A2 | G4 x2 | G4 x2 | x6 | D2 x4 | d4 x2 | D4 x2 | x6 | x6 | x6 | x6 | x6 | G2 x5 | G6 |] %14
V:3
 [G,,G,]2 [B,,G,]2 [D,F,]2 | (G,3 A,) ([G,B,][F,A,]) | [E,G,]4 [D,F,]2 | [G,,G,]6 | %4
 [G,B,]2 [G,B,]2 [E,B,]2 | (B,2 A,G,) [D,A,]2 | (G,2 [F,A,]2) [E,B,]2 | [D,F,]6 | %8
 [D,C]2 [D,B,]2 [D,F,]2 | (G,2 [B,D]2) [A,C]2 | (G,=F, [E,G,]2) (A,B,) | (C2 G,2 A,2) | %12
 (B,G,) D,2 z C x | [G,B,]6 |] %14
V:4
 x6 | G,4 x2 | x6 | x6 | x6 | D,4 x2 | G,2 x4 | x6 | x6 | G,2 x4 | B,2 x D,2 x | C,6 | D,2 D3 D,2 | %13
 x6 |] %14

